svgs/torrent_search.svg

<svg width="192" height="192" viewBox="0 0 192 192" fill="none" xmlns="http://www.w3.org/2000/svg">
<path d="M117.979 128.862L140.548 151.49M117.979 128.862C123.554 123.256 127 115.531 127 107C127 89.8792 113.121 76 96 76C78.8792 76 65 89.8792 65 107C65 124.121 78.8792 138 96 138C104.56 138 112.31 134.53 117.92 128.92C117.94 128.901 117.959 128.881 117.979 128.862ZM51.3077 22L49.1784 31M140.692 22L142.822 31M117.979 166.048C111.136 168.603 103.731 170 96 170C61.2061 170 33 141.706 33 106.803C33 101.396 33.6769 96.1478 34.9503 91.1387L43.0271 57M155.056 128.862C157.606 121.994 159 114.562 159 106.803C159 101.396 158.323 96.1478 157.05 91.1387L148.973 57" stroke="black" stroke-width="12" stroke-linecap="round"/>
</svg>

<svg xmlns="http://www.w3.org/2000/svg" width="192" height="192" fill="none" viewBox="0 0 192 192"><path stroke="#000" stroke-linecap="round" stroke-width="12" d="m117.979 128.862 22.569 22.628m-22.569-22.628C123.554 123.256 127 115.531 127 107c0-17.12-13.879-31-31-31-17.12 0-31 13.88-31 31 0 17.121 13.88 31 31 31 8.56 0 16.31-3.47 21.92-9.08zM51.308 22l-2.13 9m91.514-9 2.13 9m-24.843 135.048A62.7 62.7 0 0 1 96 170c-34.794 0-63-28.294-63-63.197 0-5.407.677-10.655 1.95-15.664L43.027 57m112.029 71.862A63.3 63.3 0 0 0 159 106.803c0-5.407-.677-10.655-1.95-15.664L148.973 57"/></svg>
